X: 104
T: Buskin
P: Longways for as many as will
%R: reel
B: "The Compleat Country Dancing-Master" printed by John Walsh, London ca. 1740
S: 6: CCDM1 http://imslp.org/wiki/The_Compleat_Country_Dancing-Master_(Various) V.1 p.104 #149 (207)
B: "The Dancing-Master: Containing Directions and Tunes for Dancing" printed by W. Pearson for John Walsh, London ca. 1709
S: 7: DMDfD http://digital.nls.uk/special-collections-of-printed-music/pageturner.cfm?id=89754629 p.284
Z: 2013 John Chambers <jc:trillian.mit.edu>
N: In bar 5, DMDfD has B for the final note.  Typo?
M: C|
L: 1/8
K: D
% - - - - - - - - - - - - - - - - - - - - - - - - -
A2 |\
d2AG F2A2 | BAGF E2G2 | AGFE D2F2 | EDCB, A,2A2 |\
d2AG F2A2 | e2cB A2fg | afd2 A2c2 | d6 |]
f2 |\
f2df a2fd | f2df e2cA | d2cd B2GB | e2Be c2A2 |\
gaga b2ag | fd fg a2gf | e2de A2c2 | d6 |]
% - - - - - - - - Dance description - - - - - - - -
%%begintext align
%% The 1st Man cast off and turn the 3d Wo. .| The 1st Wo. cast
%% off and turn the 3d Man :| Hands half round with the 2d Cu. turn single
%% and right and left into the 2d Cu. Place, then figure thro' the
%% 3d Cu. and turn your Partner into the 2d Cu. Place.  [CCDM1]
%%endtext
%%sep 1 1 500
%%begintext align
%% The first man cast off and turn the 3d. woman .| The 1st woman cast off and turn the 3d man :|
%% Hands half round with the second cu. turn single and right and left into the 2d. couple place, then
%% Figure through the 3d cu. and turn your Partner into the 2d cu. place. [CMDfD]
%%endtext
%%sep 1 8 500

%%sep 1 1 500
%%sep 1 1 500
